IMB-X-Files/The-Ambassadors-Assets/66111229a3c6c677a8f6f595_wa-wi.svg

<svg fill="none" height="124" viewBox="0 0 124 124" width="124" xmlns="http://www.w3.org/2000/svg"><path d="m83.2634 80.5205-7.3723-15.2567m7.3723 15.2567-44.808 27.4355m44.808-27.4355 26.4286.565m-33.8009-15.8217-16.7754 10.3763m16.7754-10.3763 18.6046.3058-7.0233-14.6895m-28.3567 24.76-14.3474 8.7495-16.9079-34.998m31.2553 26.2485-4.284-8.8806m-26.9713-17.3679-13.5528 8.3098 24.1478 50.2546m-10.595-58.5644 7.8053.2814m2.7897 58.283 26.6029.544 44.6337-27.4145m0 0-23.9893-50.26h-3.6319m5.4016 20.0546-26.0459 16.0222m26.0459-16.0222 3.2003-1.9686m-8.6019-18.086 8.6019 18.086m-8.6019-18.086-7.3593-15.1351-17.3948-.1904m33.356 33.4115-17.586-.3808m17.586.3808-29.2462 17.9908m11.6602-18.3716-29.2462 17.9908m29.2462-17.9908-15.77-33.0307m-13.4762 51.0215-8.1748-16.8485m8.1748 16.8485 10.9912.238m2.485-51.2595-29.4563 18.086 7.8053 16.087m25.7608 17.2293-6.5948-.1428" stroke="#8bddf8" stroke-linecap="round" stroke-linejoin="round"/></svg>

<svg width="124" height="124" viewBox="0 0 124 124" fill="none" xmlns="http://www.w3.org/2000/svg">
    <path
        d="M83.2634 80.5205L75.8911 65.2638M83.2634 80.5205L38.4554 107.956M83.2634 80.5205L109.692 81.0855M75.8911 65.2638L59.1157 75.6401M75.8911 65.2638L94.4957 65.5696L87.4724 50.8801M59.1157 75.6401L44.7683 84.3896L27.8604 49.3916M59.1157 75.6401L54.8317 66.7595M27.8604 49.3916L14.3076 57.7014L38.4554 107.956M27.8604 49.3916L35.6657 49.673M38.4554 107.956L65.0583 108.5L109.692 81.0855M109.692 81.0855L85.7027 30.8255H82.0708M87.4724 50.8801L61.4265 66.9023M87.4724 50.8801L90.6727 48.9115M82.0708 30.8255L90.6727 48.9115M82.0708 30.8255L74.7115 15.6904L57.3167 15.5M90.6727 48.9115L73.0867 48.5307M90.6727 48.9115L61.4265 66.9023M73.0867 48.5307L43.8405 66.5215M73.0867 48.5307L57.3167 15.5M43.8405 66.5215L35.6657 49.673M43.8405 66.5215L54.8317 66.7595M57.3167 15.5L27.8604 33.586L35.6657 49.673M61.4265 66.9023L54.8317 66.7595"
        stroke="#8BDDF8" stroke-linecap="round" stroke-linejoin="round" />
</svg>
